X: 19796
T: Jer O'Connell's
R: polka
M: 2/4
K: Dmajor
|:AD ED|FA de/d/|cA AG|EF GF/G/|
AD ED|FA de/d/|cA GE|D2 D2:|
|:Ad de|fd ed|cA AB|cd e2|
Ad de|fd e/f/e/d/|cA GE|D2 D2:|

